gama.ui.shared/icons_svg/light/views/tabs/view.inspector.svg

<svg height="24.75" viewBox="-746.649 -2973.769 24.75 24.75" width="24.75" xmlns="http://www.w3.org/2000/svg"><path d="m-741.24785-2961.519c1.49765-3.856 5.82955-5.7666 9.67855-4.269 1.9595.7628 3.51315 2.3094 4.269 4.269.03495.084.03495.175 0 .252-1.4907 3.849-5.8296 5.7664-9.6786 4.2688-1.9595-.7628-3.5061-2.3094-4.26895-4.2688-.03499-.084-.03499-.175 0-.252zm4.52785 3.87c3.45015 1.3366 7.3272-.336 8.7198-3.744-.7068-1.7147-2.08544-3.0723-3.821-3.744-3.45015-1.337-7.3202.3357-8.7198 3.744.7068 1.7145 2.08545 3.072 3.821 3.744zm2.4494-.9448c-1.5466 0-2.7993-1.2527-2.7993-2.7992 0-1.5467 1.2527-2.7994 2.7993-2.7994s2.7993 1.2527 2.7993 2.7994c0 1.5465-1.2527 2.7992-2.7993 2.7992zm0-.6998c1.1617 0 2.0995-.9378 2.0995-2.0994 0-1.1618-.9378-2.0996-2.0995-2.0996s-2.0995.9378-2.0995 2.0996c0 1.1616.9378 2.0994 2.0995 2.0994z" fill="#5c76a1"/></svg>

<?xml version="1.0" encoding="UTF-8" standalone="no"?>
<!DOCTYPE svg PUBLIC "-//W3C//DTD SVG 1.1//EN" "http://www.w3.org/Graphics/SVG/1.1/DTD/svg11.dtd">
<svg xmlns="http://www.w3.org/2000/svg" xmlns:dc="http://purl.org/dc/elements/1.1/" version="1.1" xmlns:xl="http://www.w3.org/1999/xlink" viewBox="-746.6491 -2973.7685 24.75 24.75" width="24.75" height="24.75">
  <defs/>
  <g id="SOURCES" fill="none" stroke="none" stroke-dasharray="none" fill-opacity="1" stroke-opacity="1">
    <title>SOURCES</title>
    <g id="SOURCES_Light">
      <title>Light</title>
      <g id="Group_12731">
        <g id="Group_9819">
          <title>eye</title>
          <g id="Graphic_9820">
            <path d="M -741.24785 -2961.519 C -739.7502 -2965.375 -735.4183 -2967.2856 -731.5693 -2965.788 C -729.6098 -2965.0252 -728.05615 -2963.4786 -727.3003 -2961.519 C -727.26535 -2961.435 -727.26535 -2961.344 -727.3003 -2961.267 C -728.791 -2957.418 -733.1299 -2955.5006 -736.9789 -2956.9982 C -738.9384 -2957.761 -740.485 -2959.3076 -741.24785 -2961.267 C -741.28284 -2961.351 -741.28284 -2961.442 -741.24785 -2961.519 Z M -736.72 -2957.649 C -733.26985 -2956.3124 -729.3928 -2957.985 -728.0002 -2961.393 C -728.707 -2963.1077 -730.08564 -2964.4653 -731.8212 -2965.137 C -735.27135 -2966.474 -739.1414 -2964.8013 -740.541 -2961.393 C -739.8342 -2959.6785 -738.45555 -2958.321 -736.72 -2957.649 Z M -734.2706 -2958.5938 C -735.8172 -2958.5938 -737.0699 -2959.8465 -737.0699 -2961.393 C -737.0699 -2962.9397 -735.8172 -2964.1924 -734.2706 -2964.1924 C -732.724 -2964.1924 -731.4713 -2962.9397 -731.4713 -2961.393 C -731.4713 -2959.8465 -732.724 -2958.5938 -734.2706 -2958.5938 Z M -734.2706 -2959.2936 C -733.1089 -2959.2936 -732.1711 -2960.2314 -732.1711 -2961.393 C -732.1711 -2962.5548 -733.1089 -2963.4926 -734.2706 -2963.4926 C -735.4323 -2963.4926 -736.3701 -2962.5548 -736.3701 -2961.393 C -736.3701 -2960.2314 -735.4323 -2959.2936 -734.2706 -2959.2936 Z" fill="#5c76a1"/>
          </g>
        </g>
        <g id="Graphic_12709"/>
      </g>
    </g>
  </g>
</svg>
